; HEADER_BLOCK_START
; generated by OrcaSlicer 2.3.0 on 2025-07-11 at 00:17:49
; total layer number: 15
;_GP_TOTAL_LAYER_NUMBER_PLACEHOLDER
; filament_density: 1.24
; filament_diameter: 1.75
; max_z_height: 4.50
; HEADER_BLOCK_END

; THUMBNAIL_BLOCK_START

;
; THUMBNAIL_BLOCK_END

; THUMBNAIL_BLOCK_START

;
; THUMBNAIL_BLOCK_END

; external perimeters extrusion width = 0.40mm
; perimeters extrusion width = 0.40mm
; infill extrusion width = 0.40mm
; solid infill extrusion width = 0.40mm
; top infill extrusion width = 0.40mm
; first layer extrusion width = 0.48mm

; EXECUTABLE_BLOCK_START
M73 P0 R42
;TYPE:Custom
M140 S0
M104 S0

CURA_START EXTRUDER_TEMP=195 BED_TEMP=60
G90
G21
M82 ; use absolute distances for extrusion
G92 E0
; filament start gcode
M106 S0
;LAYER_CHANGE
;Z:0.3
;HEIGHT:0.3
;BEFORE_LAYER_CHANGE
;0.3
G1 E-3 F1800
G92 E0
;AFTER_LAYER_CHANGE
;0.3
;_SET_FAN_SPEED_CHANGING_LAYER
SET_VELOCITY_LIMIT ACCEL=1000 ACCEL_TO_DECEL=500
; printing object Billig-HMI Display case remix-Adapter plate-.stl id:3056 copy 0
G1 Z.7 F7200
G1 X121.313 Y137.852
G1 Z.3
G1 E3 F2400
;TYPE:Outer wall
;WIDTH:0.48
G1 F900
G1 X121.281 Y137.84 E3.00175
G1 X120.55 Y137.685 E3.0397
G1 X119.989 Y137.651 E3.06826
G1 X119.408 Y137.692 E3.09783
G1 X118.691 Y137.848 E3.13514
G1 X117.998 Y138.128 E3.17309
G1 X117.517 Y138.41 E3.20143
G1 X103.306 Y148.861 E4.09759
G1 X102.784 Y149.181 E4.1287
G1 X102.225 Y149.404 E4.15925
G1 X101.642 Y149.53 E4.18958
G1 X101.177 Y149.56 E4.21321
G1 X88.849 Y149.556 E4.83953
G1 X88.23 Y149.475 E4.87125
G1 X87.638 Y149.288 E4.90276
G1 X87.088 Y149.002 E4.93428
G1 X86.597 Y148.626 E4.96567
G1 X86.083 Y148.04 E5.00526
G1 X85.776 Y147.506 E5.03655
G1 X85.525 Y146.768 E5.07615
G1 X85.444 Y146.151 E5.10776
G1 X85.44 Y104.014 E7.24842
G1 X85.526 Y103.23 E7.28849
G1 X85.741 Y102.596 E7.32251
G1 X85.958 Y102.16 E7.34725
G1 X86.271 Y101.715 E7.37487
G1 X86.834 Y101.177 E7.41443
G1 X87.406 Y100.829 E7.44847
G1 X87.926 Y100.607 E7.47718
G1 X88.583 Y100.476 E7.51119
G1 X89.007 Y100.44 E7.53284
G1 X101.156 Y100.443 E8.15003
G1 X101.783 Y100.491 E8.18194
G1 X102.509 Y100.696 E8.22028
G1 X103.179 Y101.05 E8.25876
G1 X117.387 Y111.498 E9.15473
G1 X117.824 Y111.753 E9.18041
G1 X118.326 Y112.012 E9.20909
G1 X118.897 Y112.21 E9.23982
G1 X119.449 Y112.315 E9.26838
G1 X120.103 Y112.342 E9.30161
G1 X120.786 Y112.278 E9.33646
G1 X121.365 Y112.131 E9.36681
G1 X121.835 Y111.952 E9.39234
G1 X122.484 Y111.59 E9.43011
G1 X136.694 Y101.139 E10.32623
G1 X137.216 Y100.819 E10.35734
G1 X137.775 Y100.596 E10.38789
G1 X138.358 Y100.47 E10.41822
G1 X138.823 Y100.44 E10.44186
G1 X151.151 Y100.444 E11.06817
G1 X151.77 Y100.525 E11.09989
G1 X152.362 Y100.712 E11.13141
G1 X152.912 Y100.998 E11.16292
G1 X153.403 Y101.374 E11.19431
G1 X153.915 Y101.959 E11.23381
G1 X154.214 Y102.503 E11.26534
G1 X154.349 Y102.849 E11.28421
G1 X154.517 Y103.518 E11.31924
G1 X154.56 Y104.068 E11.34728
G1 X154.556 Y146.151 E13.48519
G1 X154.475 Y146.77 E13.5169
G1 X154.288 Y147.362 E13.54842
G1 X154.002 Y147.912 E13.57994
G1 X153.624 Y148.405 E13.61145
G1 X153.167 Y148.824 E13.64297
G1 X152.646 Y149.156 E13.67436
G1 X152.046 Y149.389 E13.70705
G1 X151.572 Y149.5 E13.73178
G1 X150.993 Y149.56 E13.76137
G1 X138.826 Y149.56 E14.37943
G1 X138.064 Y149.479 E14.41837
G1 X137.491 Y149.305 E14.44882
G1 X137.155 Y149.136 E14.46793
G1 X136.697 Y148.863 E14.49497
G1 X122.451 Y138.39 E15.39325
G1 X121.973 Y138.114 E15.42127
G1 X121.35 Y137.867 E15.45532
G1 E12.45532 F1800
;WIPE_START
G1 F900
G1 X121.281 Y137.84
G1 X120.55 Y137.685
G1 X119.989 Y137.651
G1 X119.408 Y137.692
G1 X119.375 Y137.699
;WIPE_END
G92 E0
G1 Z.7 F7200
G1 X119.347 Y137.514 Z.7
G1 X130.488 Y127.18
G1 X130.591 Y127.082
G1 X151.608 Y106.608
G1 X151.742 Y106.462
G1 X151.863 Y106.304
G1 X151.969 Y106.137
G1 X152.058 Y105.967
G1 X152.103 Y105.864
G1 X152.167 Y105.69
G1 X152.199 Y105.579
G1 X152.24 Y105.395
G1 X152.256 Y105.267
G1 X152.071 Y105.242
G1 Z.3
G1 E3 F2400
G1 F900
G1 X151.986 Y105.649 E3.02109
G1 X151.803 Y106.058 E3.04387
G1 X151.591 Y106.355 E3.06241
G1 X151.328 Y106.613 E3.08114
G1 X150.954 Y106.859 E3.10386
G1 X150.61 Y106.999 E3.12276
G1 X150.17 Y107.083 E3.14548
G1 X149.798 Y107.08 E3.16438
G1 X149.358 Y106.989 E3.18724
G1 X148.922 Y106.78 E3.21177
G1 X148.648 Y106.593 E3.22864
G1 X148.388 Y106.33 E3.24743
G1 X148.138 Y105.948 E3.27063
G1 X147.986 Y105.558 E3.29189
G1 X147.917 Y105.159 E3.31243
G1 X147.939 Y104.658 E3.3379
G1 X148.136 Y104.058 E3.36999
G1 X148.41 Y103.644 E3.39522
G1 X148.672 Y103.387 E3.41388
G1 X149.048 Y103.14 E3.43673
G1 X149.391 Y103.001 E3.45551
G1 X149.835 Y102.917 E3.47847
G1 X150.202 Y102.92 E3.49712
G1 X150.647 Y103.013 E3.52021
G1 X151.059 Y103.199 E3.5432
G1 X151.395 Y103.449 E3.56449
G1 X151.612 Y103.67 E3.58021
G1 X151.892 Y104.128 E3.60748
G1 X152.023 Y104.475 E3.62633
G1 X152.083 Y104.833 E3.64475
G1 X152.08 Y105.202 E3.6635
G1 X152.08 Y105.203 E3.66355
G1 E.66355 F1800
;WIPE_START
G1 F900
G1 X151.986 Y105.649
G1 X151.803 Y106.058
G1 X151.591 Y106.355
G1 X151.328 Y106.613
G1 X151.025 Y106.813
;WIPE_END
G92 E0
G1 Z.7 F7200
G1 X127.19 Y122.579 Z.7
G1 Z.3
G1 E3 F2400
G1 F900
G1 X127.305 Y122.506 E3.00694
G1 X127.686 Y122.356 E3.02774
G1 X128.243 Y122.246 E3.05659
G1 X128.759 Y122.246 E3.08279
G1 X129.314 Y122.356 E3.11157
G1 X129.786 Y122.55 E3.13747
G1 X130.35 Y122.944 E3.17242
G1 X130.696 Y123.316 E3.19824
G1 X130.962 Y123.739 E3.2236
G1 X131.168 Y124.268 E3.25248
G1 X131.257 Y124.764 E3.27805
G1 X131.253 Y125.262 E3.30337
G1 X131.109 Y125.918 E3.33748
G1 X130.843 Y126.471 E3.36864
G1 X130.35 Y127.055 E3.40748
G1 X129.797 Y127.443 E3.44178
G1 X129.332 Y127.639 E3.46744
G1 X128.763 Y127.754 E3.49692
G1 X128.244 Y127.755 E3.52331
G1 X127.763 Y127.666 E3.54815
G1 X127.14 Y127.408 E3.58241
G1 X126.725 Y127.123 E3.60796
G1 X126.369 Y126.764 E3.63366
G1 X126.055 Y126.294 E3.66236
G1 X125.832 Y125.732 E3.6931
G1 X125.743 Y125.231 E3.71891
G1 X125.746 Y124.742 E3.74379
G1 X125.857 Y124.185 E3.77263
G1 X126.096 Y123.631 E3.8033
G1 X126.385 Y123.215 E3.82901
G1 X126.739 Y122.868 E3.85419
G1 X127.156 Y122.601 E3.87935
G1 E.87935 F1800
;WIPE_START
G1 F900
G1 X127.305 Y122.506
G1 X127.686 Y122.356
G1 X128.243 Y122.246
G1 X128.759 Y122.246
G1 X129.083 Y122.31
;WIPE_END
G92 E0
G1 Z.7 F7200
G1 X129.121 Y122.116 Z.7
G1 X129.006 Y122.093
G1 X128.757 Y122.06
G1 X128.496 Y122.049
G1 X128.249 Y122.06
G1 X128.108 Y122.075
G1 X127.861 Y122.119
G1 X127.613 Y122.186
G1 X127.377 Y122.271
G1 X127.243 Y122.33
G1 X127.024 Y122.444
G1 X126.807 Y122.583
G1 X126.603 Y122.739
G1 X126.413 Y122.913
G1 X126.239 Y123.103
G1 X126.214 Y123.136
G1 X113.055 Y127.112
G1 X112.947 Y126.957
G1 Z.3
G1 E3 F2400
G1 F900
G1 X112.794 Y127.067 E3.00952
G1 X112.258 Y127.318 E3.0396
G1 X111.905 Y127.405 E3.05808
G1 X111.312 Y127.432 E3.08824
G1 X110.782 Y127.331 E3.11564
G1 X110.358 Y127.155 E3.13896
G1 X109.935 Y126.872 E3.16484
G1 X109.618 Y126.551 E3.18773
G1 X109.299 Y126.051 E3.21786
G1 X109.168 Y125.716 E3.23615
G1 X109.07 Y125.217 E3.26196
G1 X109.08 Y124.698 E3.28838
G1 X109.178 Y124.252 E3.31157
G1 X109.34 Y123.866 E3.33282
G1 X109.584 Y123.508 E3.35487
G1 X109.925 Y123.136 E3.38046
G1 X110.359 Y122.844 E3.40707
G1 X110.783 Y122.668 E3.43039
G1 X111.288 Y122.569 E3.45651
G1 X111.73 Y122.572 E3.47898
G1 X112.222 Y122.67 E3.50447
G1 X112.706 Y122.879 E3.53124
G1 X113.091 Y123.152 E3.55522
G1 X113.38 Y123.446 E3.57615
G1 X113.662 Y123.869 E3.60199
G1 X113.832 Y124.283 E3.62473
G1 X113.93 Y124.781 E3.65051
G1 X113.921 Y125.297 E3.67671
G1 X113.821 Y125.75 E3.70032
G1 X113.614 Y126.219 E3.72633
G1 X113.359 Y126.58 E3.74879
G1 X113.062 Y126.874 E3.77004
G1 X112.979 Y126.934 E3.77523
G1 E.77523 F1800
;WIPE_START
G1 F900
G1 X112.794 Y127.067
G1 X112.258 Y127.318
G1 X111.905 Y127.405
G1 X111.312 Y127.432
G1 X111.093 Y127.39
;WIPE_END
G92 E0
G1 Z.7 F7200
G1 X91.639 Y143.712 Z.7
G1 Z.3
G1 E3 F2400
G1 F900
G1 X91.862 Y144.052 E3.02063
G1 X92.022 Y144.473 E3.04353
G1 X92.083 Y144.841 E3.06246
G1 X92.061 Y145.342 E3.08792
G1 X91.864 Y145.942 E3.12001
G1 X91.59 Y146.356 E3.14525
G1 X91.328 Y146.613 E3.16391
G1 X90.95 Y146.861 E3.18687
G1 X90.608 Y146.999 E3.2056
G1 X90.115 Y147.086 E3.231
G1 X89.623 Y147.056 E3.25607
G1 X89.106 Y146.881 E3.28377
G1 X88.679 Y146.618 E3.30927
G1 X88.388 Y146.33 E3.33007
G1 X88.131 Y145.931 E3.35417
G1 X88.002 Y145.612 E3.37167
G1 X87.917 Y145.168 E3.39464
G1 X87.92 Y144.798 E3.41342
G1 X88.012 Y144.356 E3.43637
G1 X88.156 Y144.018 E3.45502
G1 X88.407 Y143.648 E3.47774
G1 X88.668 Y143.389 E3.49642
M73 P1 R42
G1 X88.972 Y143.181 E3.51515
G1 X89.39 Y143.001 E3.53824
G1 X89.835 Y142.917 E3.56123
G1 X90.203 Y142.921 E3.57996
G1 X90.71 Y143.034 E3.60636
G1 X91.058 Y143.198 E3.62588
G1 X91.355 Y143.409 E3.64438
G1 X91.612 Y143.67 E3.663
G1 X91.617 Y143.679 E3.66352
G1 E.66352 F1800
;WIPE_START
G1 F900
G1 X91.862 Y144.052
G1 X92.022 Y144.473
G1 X92.083 Y144.841
G1 X92.061 Y145.342
G1 X91.989 Y145.56
;WIPE_END
G92 E0
G1 Z.7 F7200
G1 X88.486 Y106.906 Z.7
G1 Z.3
G1 E3 F2400
G1 F900
G1 X88.42 Y106.859 E3.00409
G1 X88.124 Y106.56 E3.02547
G1 X87.93 Y106.29 E3.04235
G1 X87.682 Y105.758 E3.07217
G1 X87.595 Y105.405 E3.09065
G1 X87.568 Y104.812 E3.1208
G1 X87.666 Y104.295 E3.14755
G1 X87.844 Y103.858 E3.1715
G1 X88.137 Y103.425 E3.19806
G1 X88.446 Y103.12 E3.2201
G1 X88.859 Y102.844 E3.24537
G1 X89.283 Y102.668 E3.26869
G1 X89.775 Y102.571 E3.29416
G1 X90.23 Y102.572 E3.31726
G1 X90.746 Y102.677 E3.344
G1 X91.134 Y102.84 E3.36539
G1 X91.414 Y103.013 E3.38213
G1 X91.853 Y103.414 E3.41232
G1 X92.155 Y103.857 E3.43954
G1 X92.351 Y104.348 E3.4664
G1 X92.432 Y104.803 E3.48987
G1 X92.429 Y105.228 E3.51148
G1 X92.351 Y105.649 E3.53324
G1 X92.167 Y106.122 E3.55901
G1 X91.882 Y106.551 E3.58519
G1 X91.554 Y106.88 E3.60878
G1 X91.132 Y107.162 E3.63458
G1 X90.647 Y107.352 E3.66104
G1 X90.197 Y107.432 E3.68423
G1 X89.77 Y107.428 E3.70596
G1 X89.247 Y107.32 E3.7331
G1 X88.764 Y107.104 E3.75995
G1 X88.518 Y106.929 E3.77529
G1 E.77529 F1800
;WIPE_START
G1 F900
G1 X88.42 Y106.859
G1 X88.124 Y106.56
G1 X87.93 Y106.29
G1 X87.682 Y105.758
G1 X87.595 Y105.405
G1 X87.587 Y105.229
;WIPE_END
G92 E0
G1 Z.7 F7200
G1 X87.389 Y105.256 Z.7
G1 X87.416 Y105.459
G1 X87.464 Y105.673
G1 X87.5 Y105.795
G1 X87.576 Y106.004
G1 X87.672 Y106.212
G1 X87.784 Y106.404
G1 X87.857 Y106.513
G1 X87.99 Y106.687
G1 X88.144 Y106.856
G1 X88.313 Y107.01
G1 X88.495 Y107.15
G1 X88.682 Y107.269
G1 X151.143 Y143.034
G1 X151.302 Y143.136
G1 X151.462 Y143.258
G1 X151.608 Y143.392
G1 X151.737 Y143.533
G1 X151.808 Y143.621
G1 X151.918 Y143.778
G1 X152.017 Y143.95
G1 X152.101 Y144.13
G1 X152.167 Y144.31
G1 X152.198 Y144.418
G1 X152.239 Y144.602
G1 X152.265 Y144.801
G1 X152.268 Y144.862
G1 X152.083 Y144.87
G1 Z.3
G1 E3 F2400
G1 F900
G1 X152.083 Y145.168 E3.0151
G1 X151.988 Y145.644 E3.03981
G1 X151.808 Y146.036 E3.06168
G1 X151.539 Y146.408 E3.08502
G1 X151.23 Y146.676 E3.1058
G1 X150.874 Y146.898 E3.12712
G1 X150.524 Y147.023 E3.14599
G1 X150.167 Y147.083 E3.16438
G1 X149.803 Y147.08 E3.18289
G1 X149.44 Y147.013 E3.20162
G1 X149.018 Y146.845 E3.22469
G1 X148.648 Y146.593 E3.24745
G1 X148.388 Y146.33 E3.26623
G1 X148.14 Y145.952 E3.28919
G1 X148.002 Y145.612 E3.30785
G1 X147.917 Y145.168 E3.33082
G1 X147.92 Y144.798 E3.34959
G1 X148.011 Y144.358 E3.37244
G1 X148.156 Y144.017 E3.39122
G1 X148.413 Y143.641 E3.41441
G1 X148.741 Y143.332 E3.43729
G1 X149.049 Y143.139 E3.45571
G1 X149.391 Y143.001 E3.47446
G1 X149.835 Y142.917 E3.49741
G1 X150.202 Y142.92 E3.51607
G1 X150.649 Y143.014 E3.53927
G1 X151.059 Y143.199 E3.56215
G1 X151.355 Y143.409 E3.58057
G1 X151.612 Y143.67 E3.59919
G1 X151.86 Y144.048 E3.62215
G1 X151.998 Y144.388 E3.64081
G1 X152.083 Y144.83 E3.66367
G1 E.66367 F1800
;WIPE_START
G1 F900
G1 X152.083 Y145.168
G1 X151.988 Y145.644
G1 X151.808 Y146.036
G1 X151.539 Y146.408
G1 X151.322 Y146.595
;WIPE_END
G92 E0
G1 Z.7 F7200
G1 X151.445 Y146.755 Z.7
G1 X151.462 Y146.742
G1 X151.608 Y146.608
G1 X151.737 Y146.467
G1 X151.808 Y146.379
G1 X151.918 Y146.222
G1 X152.017 Y146.05
G1 X152.101 Y145.87
G1 X152.167 Y145.69
G1 X152.198 Y145.582
G1 X152.24 Y145.395
G1 X152.265 Y145.198
G1 X152.274 Y145
G1 X152.274 Y105
G1 X152.265 Y104.802
G1 X152.24 Y104.605
G1 X152.198 Y104.418
G1 X152.167 Y104.31
G1 X152.101 Y104.13
G1 X152.017 Y103.95
G1 X151.918 Y103.778
G1 X151.808 Y103.621
G1 X151.737 Y103.533
G1 X151.61 Y103.394
G1 X151.619 Y100.681
G1 X151.629 Y100.632
G1 Z.3
G1 E3 F2400
;TYPE:Bottom surface
;WIDTH:0.481176
G1 F1200
G1 X154.098 Y103.102 E3.17793
G1 X154.197 Y103.442 E3.19596
G1 X154.231 Y103.824 E3.2155
G1 X151.167 Y100.76 E3.43623
G1 X150.573 Y100.755 E3.46651
G1 X154.248 Y104.431 E3.73132
G1 X154.248 Y105.02 E3.76134
G1 X149.983 Y100.755 E4.06863
G1 X149.394 Y100.755 E4.09866
G1 X154.248 Y105.609 E4.44843
G1 X154.248 Y106.199 E4.47845
G1 X152.251 Y104.202 E4.62235
G1 X152.109 Y103.853 E4.64149
G1 X151.85 Y103.467 E4.66522
G1 X151.531 Y103.149 E4.68816
G1 X151.186 Y102.911 E4.70949
G1 X150.783 Y102.734 E4.73193
G1 X148.804 Y100.755 E4.87452
G1 X148.214 Y100.755 E4.90456
G1 X150.072 Y102.612 E5.03838
G1 X149.758 Y102.611 E5.05438
G1 X149.53 Y102.659 E5.06625
G1 X147.625 Y100.754 E5.2035
G1 X147.035 Y100.754 E5.23354
G1 X149.075 Y102.794 E5.38053
G1 X148.851 Y102.892 E5.39296
G1 X148.693 Y103.001 E5.40278
G1 X146.446 Y100.754 E5.56469
G1 X145.856 Y100.754 E5.59473
G1 X148.359 Y103.257 E5.77506
G1 X148.133 Y103.49 E5.7916
G1 X148.083 Y103.57 E5.79641
G1 X145.266 Y100.754 E5.99934
G1 X144.677 Y100.753 E6.02937
G1 X147.854 Y103.931 E6.25831
G1 X147.701 Y104.368 E6.28188
G1 X144.087 Y100.753 E6.54228
G1 X143.497 Y100.753 E6.57232
G1 X147.803 Y105.059 E6.88253
G1 E3.88253 F1800
;WIPE_START
G1 F1200
G1 X146.389 Y103.644
;WIPE_END
G92 E0
G1 Z.7 F7200
G1 X149.316 Y102.831 Z.7
G1 X149.508 Y102.78
G1 X149.696 Y102.747
G1 X149.808 Y102.734
G1 X149.997 Y102.726
G1 X150.198 Y102.734
G1 X150.388 Y102.76
G1 X150.499 Y102.782
G1 X150.684 Y102.831
G1 X150.87 Y102.899
G1 X151.044 Y102.98
G1 X151.143 Y103.034
G1 X151.302 Y103.136
G1 X151.462 Y103.258
G1 X151.608 Y103.392
G1 X151.737 Y103.533
G1 X151.808 Y103.621
G1 X151.918 Y103.778
G1 X152.017 Y103.95
G1 X152.101 Y104.13
G1 X152.167 Y104.31
G1 X152.198 Y104.418
G1 X152.24 Y104.605
G1 X152.256 Y104.727
G1 X152.195 Y104.735
G1 Z.3
G1 E3 F2400
G1 F1200
G1 X154.248 Y106.788 E3.14793
G1 X154.248 Y107.378 E3.17796
G1 X152.343 Y105.473 E3.31518
G1 X152.301 Y105.683 E3.32611
G1 X152.202 Y105.921 E3.33923
G1 X154.248 Y107.967 E3.48664
G1 X154.248 Y108.556 E3.51666
G1 X152.001 Y106.31 E3.67853
G1 X151.861 Y106.517 E3.69128
G1 X151.74 Y106.638 E3.7
G1 X154.248 Y109.146 E3.88068
G1 X154.248 Y109.735 E3.91071
G1 X151.431 Y106.918 E4.11367
G1 X151.071 Y107.148 E4.13541
G1 X154.248 Y110.325 E4.36427
G1 X154.248 Y110.914 E4.39429
G1 X150.643 Y107.309 E4.65399
G1 X150.138 Y107.394 E4.68006
G1 X154.248 Y111.503 E4.97613
G1 X154.248 Y112.093 E5.00615
G1 X149.49 Y107.335 E5.34892
G1 X149.28 Y107.292 E5.35982
G1 X148.872 Y107.121 E5.3824
G1 X148.455 Y106.84 E5.408
G1 X148.151 Y106.533 E5.43002
G1 X147.876 Y106.124 E5.45513
G1 X147.681 Y105.628 E5.48226
G1 X147.658 Y105.503 E5.48872
G1 X142.908 Y100.753 E5.83099
G1 X142.318 Y100.753 E5.86102
G1 X154.248 Y112.682 E6.7205
G1 X154.247 Y113.271 E6.75053
G1 X141.729 Y100.753 E7.65248
G1 X141.139 Y100.752 E7.68252
G1 X154.247 Y113.861 E8.62695
G1 X154.247 Y114.45 E8.65698
G1 X140.549 Y100.752 E9.64388
G1 X139.96 Y100.752 E9.67392
G1 X154.247 Y115.04 E10.7033
G1 X154.247 Y115.629 E10.73333
G1 X139.37 Y100.752 E11.80519
G1 X138.784 Y100.755 E11.83507
G1 X154.247 Y116.218 E12.94917
G1 X154.247 Y116.808 E12.9792
G1 X138.251 Y100.812 E14.13167
G1 X137.866 Y100.895 E14.15174
G1 X137.779 Y100.929 E14.1565
G1 X154.247 Y117.397 E15.34296
G1 X154.247 Y117.987 E15.37298
M73 P1 R41
G1 X137.358 Y101.098 E16.58977
G1 X136.993 Y101.322 E16.61161
G1 X154.247 Y118.576 E17.85474
G1 X154.247 Y119.165 E17.88476
G1 X136.644 Y101.563 E19.15299
G1 X136.305 Y101.812 E19.17447
M73 P2 R41
G1 X154.247 Y119.755 E20.46716
G1 X154.247 Y120.344 E20.49719
G1 X135.965 Y102.062 E21.81435
G1 X135.625 Y102.312 E21.83583
