; HEADER_BLOCK_START
; generated by OrcaSlicer 2.3.0 on 2025-07-10 at 21:46:29
; total layer number: 45
;_GP_TOTAL_LAYER_NUMBER_PLACEHOLDER
; filament_density: 1.24
; filament_diameter: 1.75
; max_z_height: 13.50
; HEADER_BLOCK_END

; THUMBNAIL_BLOCK_START

;
; THUMBNAIL_BLOCK_END

; THUMBNAIL_BLOCK_START

;
; THUMBNAIL_BLOCK_END

; external perimeters extrusion width = 0.40mm
; perimeters extrusion width = 0.40mm
; infill extrusion width = 0.40mm
; solid infill extrusion width = 0.40mm
; top infill extrusion width = 0.40mm
; first layer extrusion width = 0.48mm

; EXECUTABLE_BLOCK_START
M73 P0 R98
;TYPE:Custom
M140 S0
M104 S0

CURA_START EXTRUDER_TEMP=195 BED_TEMP=60
G90
G21
M82 ; use absolute distances for extrusion
G92 E0
; filament start gcode
M106 S0
;LAYER_CHANGE
;Z:0.3
;HEIGHT:0.3
;BEFORE_LAYER_CHANGE
;0.3
G1 E-3 F1800
G92 E0
;AFTER_LAYER_CHANGE
;0.3
;_SET_FAN_SPEED_CHANGING_LAYER
SET_VELOCITY_LIMIT ACCEL=1000 ACCEL_TO_DECEL=500
; printing object Billig-HMI Display case remix-HMI_CASE_TOP-.stl id:3056 copy 0
G1 Z.7 F7200
G1 X27.463 Y72.634
G1 Z.3
G1 E3 F2400
;TYPE:Outer wall
;WIDTH:0.48
G1 F900
G1 X28.216 Y71.716 E3.06033
G1 X29.134 Y70.963 E3.12066
G1 X30.182 Y70.403 E3.18099
G1 X31.318 Y70.059 E3.24132
G1 X32.522 Y69.94 E3.30275
G1 X207.493 Y69.941 E12.19154
G1 X208.682 Y70.059 E12.25225
G1 X209.818 Y70.403 E12.31258
G1 X210.866 Y70.963 E12.37291
G1 X211.784 Y71.716 E12.43324
G1 X212.537 Y72.634 E12.49357
G1 X213.097 Y73.682 E12.5539
G1 X213.392 Y74.655 E12.60557
G1 X213.489 Y75.305 E12.63896
G1 X213.56 Y76.105 E12.67977
G1 X213.56 Y173.978 E17.65187
G1 X213.441 Y175.182 E17.7133
G1 X213.097 Y176.318 E17.77363
G1 X212.537 Y177.366 E17.83396
G1 X211.784 Y178.284 E17.89429
G1 X210.866 Y179.037 E17.95462
G1 X209.818 Y179.597 E18.01495
G1 X208.682 Y179.941 E18.07528
G1 X207.478 Y180.06 E18.13671
G1 X32.522 Y180.06 E27.02478
G1 X31.318 Y179.941 E27.08622
M73 P0 R97
G1 X30.182 Y179.597 E27.14655
G1 X29.134 Y179.037 E27.20688
G1 X28.216 Y178.284 E27.26721
G1 X27.463 Y177.366 E27.32753
G1 X26.903 Y176.318 E27.38786
G1 X26.559 Y175.182 E27.44819
G1 X26.44 Y173.978 E27.50963
G1 X26.44 Y76.022 E32.48598
G1 X26.559 Y74.818 E32.54741
G1 X26.903 Y73.682 E32.60774
G1 X27.444 Y72.67 E32.66604
G1 E29.66604 F1800
;WIPE_START
G1 F900
G1 X28.216 Y71.716
G1 X28.814 Y71.226
;WIPE_END
G92 E0
G1 Z.7 F7200
G1 X28.931 Y71.368 Z.7
G1 X207 Y73.121
G1 X207.875 Y73.236
G1 X208.689 Y73.574
G1 X209.077 Y73.871
G1 X209.352 Y74.082
G1 X209.24 Y74.228
G1 Z.3
G1 E3 F2400
G1 F900
G1 X209.626 Y74.72 E3.03179
G1 X209.822 Y75.038 E3.05077
G1 X210.076 Y75.652 E3.08452
G1 X210.191 Y76.523 E3.12914
G1 X210.088 Y77.304 E3.16915
G1 X209.775 Y78.076 E3.21146
G1 X209.272 Y78.74 E3.25378
G1 X208.615 Y79.252 E3.2961
G1 X207.848 Y79.576 E3.33842
G1 X207.023 Y79.691 E3.38073
G1 X206.196 Y79.588 E3.42305
G1 X205.424 Y79.275 E3.46537
G1 X204.76 Y78.772 E3.50768
G1 X204.248 Y78.115 E3.55
;WIDTH:0.506994
G1 X203.911 Y77.353 E3.59508
G1 X203.818 Y76.522 E3.64034
;WIDTH:0.488873
G1 X203.856 Y76.108 E3.6619
;WIDTH:0.514682
G1 X203.895 Y75.694 E3.68478
G1 X204.225 Y74.924 E3.73088
;WIDTH:0.48
G1 X204.728 Y74.26 E3.7732
G1 X205.361 Y73.766 E3.81402
G1 X206.152 Y73.424 E3.85779
G1 X206.977 Y73.309 E3.9001
G1 X207.804 Y73.412 E3.94242
G1 X208.462 Y73.678 E3.97848
G1 X208.78 Y73.874 E3.99746
G1 X209.208 Y74.203 E4.0249
G1 E1.0249 F1800
;WIPE_START
G1 F900
G1 X209.626 Y74.72
G1 X209.822 Y75.038
G1 X210.076 Y75.652
G1 X210.115 Y75.947
;WIPE_END
G92 E0
G1 Z.7 F7200
G1 X210.303 Y75.922 Z.7
G1 X210.379 Y76.5
G1 X203.739 Y173.5
G1 X203.774 Y173.972
G1 X203.804 Y174.356
G1 X203.896 Y174.734
G1 X203.923 Y174.826
G1 X204.074 Y175.189
G1 X204.14 Y175.276
G1 X204.291 Y175.161
G1 Z.3
G1 E3 F2400
G1 F900
G1 X204.225 Y175.076 E3.00547
;WIDTH:0.506994
G1 X203.911 Y174.353 E3.04809
G1 X203.818 Y173.522 E3.09335
;WIDTH:0.488873
G1 X203.856 Y173.108 E3.11491
;WIDTH:0.514682
G1 X203.895 Y172.694 E3.13779
G1 X204.225 Y171.924 E3.18389
;WIDTH:0.48
G1 X204.728 Y171.26 E3.22621
G1 X205.385 Y170.748 E3.26852
G1 X206.152 Y170.424 E3.31084
G1 X206.977 Y170.309 E3.35316
G1 X207.797 Y170.411 E3.39514
G1 X208.576 Y170.725 E3.43778
G1 X209.24 Y171.228 E3.4801
G1 X209.752 Y171.885 E3.52241
G1 X210.076 Y172.652 E3.56473
G1 X210.191 Y173.477 E3.60705
G1 X210.088 Y174.304 E3.64936
G1 X209.822 Y174.962 E3.68543
G1 X209.626 Y175.28 E3.70441
G1 X209.272 Y175.74 E3.73388
G1 X208.78 Y176.126 E3.76567
G1 X208.462 Y176.322 E3.78465
G1 X207.848 Y176.576 E3.8184
G1 X207.173 Y176.671 E3.85304
G1 X206.977 Y176.691 E3.86303
G1 X206.196 Y176.588 E3.90304
G1 X205.424 Y176.275 E3.94535
G1 X204.76 Y175.772 E3.98767
G1 X204.315 Y175.193 E4.02479
G1 E1.02479 F1800
;WIPE_START
G1 F900
G1 X204.225 Y175.076
G1 X203.911 Y174.353
G1 X203.818 Y173.522
G1 X203.839 Y173.295
;WIPE_END
G92 E0
G1 Z.7 F7200
G1 X203.755 Y173.288 Z.7
G1 X203.549 Y175.163
G1 X203.548 Y176.098
G1 X36.452 Y176.098
G1 X36.451 Y170.457
G1 X33.828 Y170.23
G1 X33.804 Y170.412
G1 Z.3
G1 E3 F2400
G1 F900
G1 X34.576 Y170.725 E3.04232
G1 X35.24 Y171.228 E3.08463
G1 X35.752 Y171.885 E3.12695
;WIDTH:0.504221
G1 X36.087 Y172.647 E3.17174
G1 X36.182 Y173.478 E3.2167
;WIDTH:0.488873
G1 X36.144 Y173.892 E3.23827
;WIDTH:0.514682
G1 X36.105 Y174.306 E3.26115
G1 X35.775 Y175.076 E3.30724
;WIDTH:0.48
G1 X35.272 Y175.74 E3.34956
G1 X34.674 Y176.206 E3.38809
G1 X33.848 Y176.576 E3.43408
G1 X33.023 Y176.691 E3.4764
G1 X32.196 Y176.588 E3.51872
G1 X31.538 Y176.322 E3.55478
G1 X31.22 Y176.126 E3.57376
G1 X30.76 Y175.772 E3.60323
G1 X30.374 Y175.28 E3.63502
G1 X30.178 Y174.962 E3.654
G1 X29.924 Y174.348 E3.68775
G1 X29.809 Y173.523 E3.73007
G1 X29.912 Y172.696 E3.77238
G1 X30.225 Y171.924 E3.8147
G1 X30.728 Y171.26 E3.85702
G1 X31.385 Y170.748 E3.89933
G1 X32.152 Y170.424 E3.94165
G1 X32.977 Y170.309 E3.98397
G1 X33.764 Y170.407 E4.02425
G1 E1.02425 F1800
;WIPE_START
G1 F900
G1 X34.576 Y170.725
G1 X35.24 Y171.228
G1 X35.421 Y171.461
;WIPE_END
G92 E0
G1 Z.7 F7200
G1 X35.57 Y171.347 Z.7
G1 X36.457 Y172.167
G1 X36.451 Y175.163
G1 X36.452 Y176.098
G1 X203.548 Y176.098
G1 X203.549 Y175.828
G1 X203.341 Y175.828
G1 Z.3
G1 E3 F2400
G1 F900
G1 X203.216 Y175.915 E3.00775
G1 X36.811 Y175.915 E11.46139
G1 X36.687 Y175.864 E11.46818
M73 P1 R97
G1 X36.635 Y175.739 E11.47505
;WIDTH:0.506993
G1 X36.622 Y174.459 E11.54431
G1 X36.643 Y173.552 E11.5934
;WIDTH:0.488873
G1 X36.631 Y173.106 E11.61654
;WIDTH:0.514682
G1 X36.618 Y172.66 E11.64109
G1 X36.635 Y171.753 E11.69103
;WIDTH:0.48
G1 X36.635 Y78.247 E16.44131
;WIDTH:0.506993
G1 X36.622 Y77.459 E16.48392
G1 X36.643 Y76.552 E16.53301
;WIDTH:0.488873
G1 X36.631 Y76.106 E16.55615
;WIDTH:0.514682
G1 X36.618 Y75.66 E16.5807
G1 X36.635 Y74.753 E16.63064
;WIDTH:0.48
G1 X36.635 Y74.211 E16.65821
G1 X36.68 Y74.093 E16.66458
G1 X36.811 Y74.035 E16.67186
G1 X203.189 Y74.035 E25.12415
G1 X203.32 Y74.093 E25.13143
G1 X203.365 Y74.211 E25.13781
G1 X203.365 Y74.753 E25.16538
;WIDTH:0.504222
G1 X203.377 Y75.541 E25.20772
G1 X203.357 Y76.448 E25.2565
;WIDTH:0.488873
G1 X203.369 Y76.894 E25.27964
;WIDTH:0.514682
G1 X203.382 Y77.34 E25.30419
G1 X203.365 Y78.247 E25.35412
;WIDTH:0.48
G1 X203.365 Y171.753 E30.10441
;WIDTH:0.504222
G1 X203.377 Y172.541 E30.14675
G1 X203.357 Y173.448 E30.19553
;WIDTH:0.488873
G1 X203.369 Y173.894 E30.21867
;WIDTH:0.514682
G1 X203.382 Y174.34 E30.24322
G1 X203.365 Y175.247 E30.29315
;WIDTH:0.48
G1 X203.343 Y175.788 E30.32067
G1 E27.32067 F1800
;WIPE_START
G1 F900
G1 X203.216 Y175.915
G1 X201.395 Y175.915
;WIPE_END
G92 E0
G1 Z.7 F7200
G1 X201.395 Y176.099 Z.7
G1 X203.548 Y176.098
G1 X203.548 Y73.852
G1 X36.452 Y73.852
M73 P1 R96
G1 X36.451 Y79.518
G1 X33 Y79.879
G1 X32.125 Y79.764
G1 X31.311 Y79.426
G1 X30.611 Y78.889
G1 X30.074 Y78.189
G1 X29.736 Y77.375
G1 X29.621 Y76.5
G1 X29.685 Y76.016
G1 X29.73 Y75.672
G1 X29.912 Y75.696
G1 Z.3
G1 E3 F2400
G1 F900
G1 X30.178 Y75.038 E3.03606
G1 X30.374 Y74.72 E3.05504
G1 X30.728 Y74.26 E3.08452
G1 X31.22 Y73.874 E3.1163
G1 X31.538 Y73.678 E3.13528
G1 X32.152 Y73.424 E3.16903
G1 X33.023 Y73.309 E3.21366
G1 X33.804 Y73.412 E3.25367
G1 X34.576 Y73.725 E3.29598
G1 X35.24 Y74.228 E3.3383
G1 X35.752 Y74.885 E3.38062
;WIDTH:0.504221
G1 X36.087 Y75.647 E3.42541
G1 X36.182 Y76.478 E3.47036
;WIDTH:0.488873
G1 X36.144 Y76.892 E3.49193
;WIDTH:0.514682
G1 X36.105 Y77.306 E3.51481
G1 X35.775 Y78.076 E3.56091
;WIDTH:0.48
G1 X35.272 Y78.74 E3.60323
G1 X34.615 Y79.252 E3.64554
G1 X33.848 Y79.576 E3.68786
G1 X33.023 Y79.691 E3.73018
G1 X32.203 Y79.589 E3.77216
G1 X31.424 Y79.275 E3.8148
G1 X30.76 Y78.772 E3.85712
G1 X30.248 Y78.115 E3.89943
G1 X29.924 Y77.348 E3.94175
G1 X29.809 Y76.523 E3.98407
G1 X29.907 Y75.736 E4.02435
G1 E1.02435 F1800
;WIPE_START
G1 F900
G1 X30.178 Y75.038
G1 X30.374 Y74.72
G1 X30.728 Y74.26
G1 X30.962 Y74.077
;WIPE_END
G92 E0
G1 Z.7 F7200
G1 X30.848 Y73.928 Z.7
G1 X31.311 Y73.574
G1 X32.125 Y73.236
G1 X33 Y73.121
G1 X41.963 Y73.851
G1 X209.446 Y70.482
G1 X209.463 Y70.426
G1 Z.3
G1 E3 F2400
;TYPE:Bottom surface
;WIDTH:0.480095
G1 F1200
G1 X212.771 Y73.733 E3.23767
G1 X212.807 Y73.802 E3.24161
G1 X213.05 Y74.6 E3.28399
G1 X208.9 Y70.45 E3.58217
G1 X208.621 Y70.366 E3.59701
G1 X208.184 Y70.323 E3.61928
G1 X213.177 Y75.316 E3.97807
G1 X213.241 Y75.968 E4.01136
G1 X207.532 Y70.259 E4.42162
G1 X206.939 Y70.253 E4.45177
G1 X213.248 Y76.562 E4.90516
G1 X213.248 Y77.15 E4.93504
G1 X206.351 Y70.253 E5.43067
G1 X205.763 Y70.253 E5.46055
G1 X213.248 Y77.738 E5.99843
G1 X213.248 Y78.326 E6.0283
G1 X210.298 Y75.375 E6.24034
G1 X210.06 Y74.799 E6.27202
G1 X210.003 Y74.7 E6.27781
G1 X209.478 Y74.021 E6.32142
G1 X208.741 Y73.459 E6.36853
G1 X208.123 Y73.201 E6.40258
G1 X205.175 Y70.253 E6.6144
G1 X204.587 Y70.253 E6.64427
G1 X207.379 Y73.044 E6.84486
G1 X206.947 Y72.999 E6.8669
G1 X206.769 Y73.022 E6.87606
G1 X203.999 Y70.253 E7.07506
G1 X203.412 Y70.253 E7.10493
G1 X206.249 Y73.091 E7.30886
G1 X206.126 Y73.107 E7.31517
G1 X205.806 Y73.236 E7.33269
G1 X202.824 Y70.253 E7.54703
G1 X202.236 Y70.253 E7.57691
G1 X205.387 Y73.404 E7.80336
G1 X205.175 Y73.516 E7.81553
G1 X205.028 Y73.633 E7.82509
G1 X201.648 Y70.253 E8.06797
G1 X201.06 Y70.253 E8.09784
G1 X204.699 Y73.893 E8.35938
G1 X204.488 Y74.06 E8.37308
G1 X204.397 Y74.178 E8.38066
G1 X200.472 Y70.253 E8.66274
G1 X199.884 Y70.253 E8.69261
G1 X204.142 Y74.511 E8.99859
G1 X203.994 Y74.704 E9.01096
G1 X203.916 Y74.873 E9.0204
G1 X203.677 Y74.634 E9.03757
G1 X203.695 Y75.24 E9.06841
G1 X203.87 Y75.415 E9.08096
G1 E6.08096 F1800
;WIPE_START
G1 F1200
G1 X203.695 Y75.24
G1 X203.677 Y74.634
G1 X203.916 Y74.873
G1 X203.994 Y74.704
G1 X204.142 Y74.511
G1 X203.874 Y74.243
;WIPE_END
G92 E0
G1 Z.7 F7200
G1 X202.953 Y73.91 Z.7
G1 Z.3
G1 E3 F2400
G1 F1200
G1 X199.296 Y70.253 E3.26281
G1 X198.708 Y70.253 E3.29269
G1 X202.178 Y73.723 E3.54206
G1 X201.591 Y73.723 E3.57193
G1 X198.12 Y70.253 E3.82131
G1 X197.532 Y70.253 E3.85118
G1 X201.003 Y73.723 E4.10056
G1 X200.415 Y73.723 E4.13043
G1 X196.944 Y70.253 E4.37981
G1 X196.357 Y70.253 E4.40968
G1 X199.827 Y73.723 E4.65905
G1 X199.239 Y73.723 E4.68893
G1 X195.769 Y70.253 E4.9383
G1 X195.181 Y70.253 E4.96818
G1 X198.651 Y73.723 E5.21755
G1 X198.063 Y73.723 E5.24743
G1 X194.593 Y70.253 E5.4968
G1 X194.005 Y70.253 E5.52668
G1 X197.475 Y73.723 E5.77605
G1 X196.887 Y73.723 E5.80593
G1 X193.417 Y70.253 E6.0553
G1 X192.829 Y70.253 E6.08518
G1 X196.299 Y73.723 E6.33456
G1 X195.711 Y73.723 E6.36443
G1 X192.241 Y70.253 E6.61381
G1 X191.653 Y70.253 E6.64368
G1 X195.124 Y73.723 E6.89306
G1 X194.536 Y73.723 E6.92293
G1 X191.065 Y70.253 E7.17231
G1 X190.477 Y70.253 E7.20218
G1 X193.948 Y73.723 E7.45156
G1 X193.36 Y73.723 E7.48144
G1 X189.89 Y70.253 E7.73081
G1 X189.302 Y70.253 E7.76069
G1 X192.772 Y73.723 E8.01007
G1 X192.184 Y73.723 E8.03994
G1 X188.714 Y70.253 E8.28932
G1 X188.126 Y70.253 E8.31919
G1 X191.596 Y73.723 E8.56857
G1 X191.008 Y73.723 E8.59845
G1 X187.538 Y70.253 E8.84783
G1 X186.95 Y70.253 E8.8777
G1 X190.42 Y73.723 E9.12708
G1 X189.832 Y73.723 E9.15696
G1 X186.362 Y70.253 E9.40634
G1 X185.774 Y70.253 E9.43621
G1 X189.244 Y73.723 E9.68559
G1 X188.657 Y73.723 E9.71547
G1 X185.186 Y70.253 E9.96485
G1 X184.598 Y70.253 E9.99472
G1 X188.069 Y73.723 E10.2441
G1 X187.481 Y73.723 E10.27398
G1 X184.01 Y70.253 E10.52336
G1 X183.422 Y70.253 E10.55323
G1 X186.893 Y73.723 E10.80262
G1 X186.305 Y73.723 E10.83249
G1 X182.835 Y70.253 E11.08187
G1 X182.247 Y70.253 E11.11175
G1 X185.717 Y73.723 E11.36113
G1 X185.129 Y73.723 E11.391
G1 X181.659 Y70.253 E11.64039
G1 X181.071 Y70.253 E11.67026
G1 X184.541 Y73.723 E11.91964
G1 X183.953 Y73.723 E11.94952
G1 X180.483 Y70.253 E12.1989
G1 X179.895 Y70.253 E12.22878
G1 X183.365 Y73.723 E12.47816
G1 X182.777 Y73.723 E12.50803
G1 X179.307 Y70.253 E12.75742
G1 X178.719 Y70.253 E12.78729
G1 X182.19 Y73.723 E13.03668
G1 X181.602 Y73.723 E13.06655
G1 X178.131 Y70.253 E13.31594
G1 X177.543 Y70.253 E13.34581
G1 X181.014 Y73.723 E13.5952
G1 X180.426 Y73.723 E13.62507
G1 X176.955 Y70.253 E13.87446
G1 X176.368 Y70.253 E13.90433
G1 X179.838 Y73.723 E14.15372
G1 X179.25 Y73.723 E14.18359
G1 X175.78 Y70.253 E14.43298
G1 X175.192 Y70.253 E14.46285
G1 X178.662 Y73.723 E14.71224
G1 X178.074 Y73.723 E14.74211
G1 X174.604 Y70.253 E14.9915
G1 X174.016 Y70.253 E15.02138
G1 X177.486 Y73.723 E15.27076
G1 X176.898 Y73.723 E15.30064
G1 X173.428 Y70.253 E15.55003
G1 X172.84 Y70.253 E15.5799
G1 X176.311 Y73.723 E15.82929
G1 X175.723 Y73.723 E15.85916
G1 X172.252 Y70.253 E16.10855
G1 X171.664 Y70.253 E16.13842
G1 X175.135 Y73.723 E16.38781
G1 X174.547 Y73.723 E16.41769
G1 X171.076 Y70.253 E16.66708
G1 X170.488 Y70.253 E16.69695
G1 X173.959 Y73.723 E16.94634
G1 X173.371 Y73.723 E16.97621
G1 X169.9 Y70.253 E17.2256
G1 X169.313 Y70.253 E17.25548
G1 X172.783 Y73.723 E17.50487
G1 X172.195 Y73.723 E17.53474
G1 X168.725 Y70.253 E17.78413
G1 X168.137 Y70.253 E17.81401
G1 X171.607 Y73.723 E18.0634
G1 X171.019 Y73.723 E18.09327
G1 X167.549 Y70.253 E18.34266
G1 X166.961 Y70.253 E18.37254
G1 X170.431 Y73.723 E18.62193
G1 X169.844 Y73.723 E18.6518
G1 X166.373 Y70.253 E18.9012
G1 X165.785 Y70.253 E18.93107
G1 X169.256 Y73.723 E19.18046
M73 P2 R96
G1 X168.668 Y73.723 E19.21034
G1 X165.197 Y70.253 E19.45973
G1 X164.609 Y70.253 E19.4896
G1 X168.08 Y73.723 E19.739
G1 X167.492 Y73.723 E19.76887
G1 X164.021 Y70.253 E20.01826
G1 X163.433 Y70.253 E20.04814
G1 X166.904 Y73.723 E20.29753
G1 X166.316 Y73.723 E20.32741
G1 X162.846 Y70.253 E20.5768
G1 X162.258 Y70.253 E20.60667
G1 X165.728 Y73.723 E20.85607
G1 X165.14 Y73.723 E20.88594
G1 X161.67 Y70.253 E21.13534
G1 X161.082 Y70.253 E21.16521
G1 X164.552 Y73.723 E21.41461
G1 X163.964 Y73.723 E21.44448
G1 X160.494 Y70.253 E21.69388
G1 X159.906 Y70.253 E21.72375
G1 X163.377 Y73.723 E21.97315
G1 X162.789 Y73.723 E22.00302
G1 X159.318 Y70.253 E22.25242
G1 X158.73 Y70.253 E22.28229
G1 X162.201 Y73.723 E22.53169
G1 X161.613 Y73.723 E22.56156
G1 X158.142 Y70.253 E22.81096
G1 X157.554 Y70.253 E22.84083
G1 X161.025 Y73.723 E23.09023
G1 X160.437 Y73.723 E23.1201
G1 X156.966 Y70.253 E23.3695
G1 X156.378 Y70.253 E23.39937
G1 X159.849 Y73.723 E23.64877
G1 X159.261 Y73.723 E23.67865
G1 X155.791 Y70.253 E23.92804
G1 X155.203 Y70.253 E23.95792
G1 X158.673 Y73.723 E24.20732
G1 X158.085 Y73.723 E24.23719
G1 X154.615 Y70.253 E24.48659
G1 X154.027 Y70.253 E24.51646
G1 X157.497 Y73.723 E24.76586
G1 X156.91 Y73.723 E24.79574
G1 X153.439 Y70.253 E25.04514
G1 X152.851 Y70.253 E25.07501
G1 X156.322 Y73.723 E25.32441
G1 X155.734 Y73.723 E25.35428
G1 X152.263 Y70.253 E25.60368
G1 X151.675 Y70.253 E25.63356
G1 X155.146 Y73.723 E25.88296
G1 X154.558 Y73.723 E25.91283
G1 X151.087 Y70.253 E26.16223
G1 X150.499 Y70.253 E26.19211
G1 X153.97 Y73.723 E26.44151
G1 X153.382 Y73.723 E26.47138
G1 X149.911 Y70.253 E26.72078
G1 X149.324 Y70.253 E26.75066
G1 X152.794 Y73.723 E27.00006
G1 X152.206 Y73.723 E27.02993
G1 X148.736 Y70.253 E27.27934
G1 X148.148 Y70.253 E27.30921
G1 X151.618 Y73.723 E27.55861
G1 X151.03 Y73.723 E27.58849
G1 X147.56 Y70.253 E27.83789
G1 X146.972 Y70.253 E27.86776
G1 X150.443 Y73.723 E28.11717
G1 X149.855 Y73.723 E28.14704
G1 X146.384 Y70.253 E28.39644
G1 X145.796 Y70.253 E28.42632
